X: 9927
T: Deuxième Partie De Quadrille D'Île D'Orléans
R: jig
M: 6/8
K: Dmajor
"D"dfd "F#/C#"cfc|"Bm" B2 B B2A|"D" dfd "B7/D#"cfc|"Em"B2 BB2A|
"A7"ege "Bm"dfd|"A7/C#" c2 cc2B|"A7"A2 A ABc|1 "D"dcB "A7"AFA:|2 "D"dAF2<D2||
|:"D"F2>F2Ad|f3f2d|"D"e2 d "B7/D#"c2d|"Em"g3g2f|
"A7"e2 ee2d|c2 cc2B|A2 A ABc|1 "D"dcB A2G:|2 "D"dAF D3||

